src/components/Icon/assets/channel.svg

<svg width="24" height="24" viewBox="0 0 24 24" fill="none" xmlns="http://www.w3.org/2000/svg">
<path fill-rule="evenodd" clip-rule="evenodd" d="M11.9986 4.0006C9.87758 4.0006 7.87258 4.81859 6.34958 6.33759C4.50858 8.17559 3.69058 10.7236 4.10658 13.3276C4.64858 16.7136 7.40958 19.4226 10.8226 19.9156C12.5336 20.1626 14.2386 19.8676 15.7486 19.0606C16.3906 18.7186 17.1066 18.6486 17.7636 18.8676L19.4196 19.4186L18.8676 17.7636C18.6496 17.1076 18.7176 16.3926 19.0606 15.7486C19.9446 14.0936 20.2116 12.2286 19.8346 10.3546C19.1876 7.1426 16.5806 4.6326 13.3456 4.1096C12.8936 4.0366 12.4436 4.0006 11.9986 4.0006ZM12.0006 22.0006C11.5146 22.0006 11.0256 21.9656 10.5366 21.8946C6.26659 21.2776 2.81059 17.8846 2.13259 13.6436C1.61359 10.3976 2.63559 7.2186 4.93659 4.9226C7.23759 2.6256 10.4206 1.6106 13.6646 2.1356C17.7176 2.7916 20.9856 5.9356 21.7956 9.9596C22.2656 12.2946 21.9296 14.6216 20.8256 16.6896C20.7776 16.7786 20.7066 16.9556 20.7656 17.1316L21.6336 19.7356C21.8136 20.2776 21.6756 20.8656 21.2706 21.2706C20.8656 21.6746 20.2766 21.8126 19.7356 21.6326L17.1306 20.7646C16.9556 20.7066 16.7806 20.7776 16.6916 20.8246C15.2346 21.6026 13.6356 22.0006 12.0006 22.0006ZM8.78708 14.0655C7.94208 14.0655 7.58908 13.4555 7.58908 11.9605C7.58908 10.4655 7.94208 9.8555 8.78708 9.8555C9.63208 9.8555 9.98608 10.4655 9.98608 11.9605C9.98608 13.4555 9.63208 14.0655 8.78708 14.0655ZM14.0154 11.9605C14.0154 13.4555 14.3694 14.0655 15.2144 14.0655C16.0594 14.0655 16.4124 13.4555 16.4124 11.9605C16.4124 10.4655 16.0594 9.8555 15.2144 9.8555C14.3694 9.8555 14.0154 10.4655 14.0154 11.9605Z" fill="#65676A"/>
</svg>

<svg xmlns="http://www.w3.org/2000/svg" width="24" height="24" viewBox="0 0 24 24">
    <path fill="#65676A" fill-rule="evenodd" d="M13.665 2.136c4.053.656 7.32 3.8 8.13 7.824.47 2.335.135 4.662-.97 6.73-.047.089-.118.266-.06.442l.869 2.604c.18.542.042 1.13-.363 1.535-.405.404-.994.542-1.535.362l-2.605-.868c-.175-.058-.35.013-.44.06-1.456.778-3.055 1.176-4.69 1.176-.486 0-.975-.035-1.464-.106-4.27-.617-7.726-4.01-8.404-8.251-.52-3.246.503-6.425 2.804-8.721 2.3-2.297 5.484-3.312 8.728-2.787zM11.999 4c-2.121 0-4.126.818-5.65 2.337-1.84 1.838-2.658 4.386-2.242 6.99.542 3.386 3.303 6.095 6.716 6.588 1.71.247 3.416-.048 4.926-.855.642-.342 1.358-.412 2.015-.193l1.656.55-.552-1.654c-.218-.656-.15-1.371.193-2.015.884-1.655 1.15-3.52.774-5.394-.647-3.212-3.254-5.722-6.49-6.245C12.895 4.037 12.445 4 12 4zM8.787 9.855c.845 0 1.2.61 1.2 2.105s-.355 2.105-1.2 2.105-1.198-.61-1.198-2.104c0-1.495.353-2.106 1.198-2.106zm6.427 0c.845 0 1.198.61 1.198 2.105s-.353 2.105-1.198 2.105-1.199-.61-1.199-2.104c0-1.495.354-2.106 1.2-2.106z"/>
</svg>
